X:122
T:Maid In the Cherry Tree (reel), The
T:The Curragh Races 
B:CRE1.103 (Gearrchaile sa gCrann Silini)
F:file ID: cre.1/122maid_ct
S:John Potts
M:C
L:1/8
Q:180
R:reel
K:Am
eAcA eAcA|G2BG dGBG|eAcA eAcA|dBGB cAA2|
eAcA eAcA|G2BG dGBG|cBcA BABG|dBGB cAA>||
B/| c2eA gAeA|c2eg dBGB|c2eA gAeA|dBGB cAAB|
c2eA gAeA|c2eg dBGB|c2cA BABG|dBGB cAA2||

%%%

